src/icons/folder-download.svg

<svg height="32" viewBox="0 0 32 32" width="32" xmlns="http://www.w3.org/2000/svg"><path d="m2.777344 1.9999999c-.430889 0-.777344.446-.777344 1v3.921875 2.0781251 20.078125c0 .5114.319054.921875.716797.921875h26.566406c.397743 0 .716797-.410474.716797-.921875v-22.1562501c0-.5113999-.319054-.9218749-.716797-.9218749h-12.726562c-.886457.034-1.316068-.264328-1.707032-.7363281l-1.849609-2.419922c-.261411-.4404-.457783-.84375-.888672-.84375zm8.130859 9.2480471c.367069-.330166.961055-.330166 1.324219 0l3.763672 3.384765 3.763672-3.384765c.367064-.330166.961061-.330166 1.324218 0l.890625.789062c.183538.165087.275391.382084.275391.597657s-.09185.430424-.275391.59375l-5.310547 4.777343c-.367066.333674-.961047.333881-1.328124.0039l-5.310547-4.777337c-.183535-.165082-.275391-.382084-.275391-.597656s.09186-.430424.275391-.59375zm.0039 6.740234c.363174-.330164.957149-.330164 1.324219 0l3.763672 3.384766 3.767578-3.380859c.363175-.330165.957141-.330164 1.324219 0l.882812.792968c.183538.163326.275391.378178.275391.59375s-.09185.432575-.275391.597656l-5.310547 4.775391v.002c-.367066.329984-.961047.329778-1.328124-.0039l-5.310547-4.777344c-.183535-.163326-.275391-.378176-.275391-.59375 0-.215573.09186-.43257.275391-.597656z" fill="#4285f4"/></svg>

<?xml version="1.0" encoding="UTF-8" standalone="no"?>
<svg
   xmlns:dc="http://purl.org/dc/elements/1.1/"
   xmlns:cc="http://creativecommons.org/ns#"
   xmlns:rdf="http://www.w3.org/1999/02/22-rdf-syntax-ns#"
   xmlns:svg="http://www.w3.org/2000/svg"
   xmlns="http://www.w3.org/2000/svg"
   xmlns:sodipodi="http://sodipodi.sourceforge.net/DTD/sodipodi-0.dtd"
   xmlns:inkscape="http://www.inkscape.org/namespaces/inkscape"
   viewBox="0 0 32 32"
   version="1.1"
   id="svg6"
   sodipodi:docname="folder-download.svg"
   inkscape:version="1.0.1 (3bc2e813f5, 2020-09-07)"
   width="32"
   height="32">
  <metadata
     id="metadata10">
    <rdf:RDF>
      <cc:Work
         rdf:about="">
        <dc:format>image/svg+xml</dc:format>
        <dc:type
           rdf:resource="http://purl.org/dc/dcmitype/StillImage" />
        <dc:title />
      </cc:Work>
    </rdf:RDF>
  </metadata>
  <sodipodi:namedview
     pagecolor="#ffffff"
     bordercolor="#666666"
     borderopacity="1"
     objecttolerance="10"
     gridtolerance="10"
     guidetolerance="10"
     inkscape:pageopacity="0"
     inkscape:pageshadow="2"
     inkscape:window-width="1366"
     inkscape:window-height="702"
     id="namedview8"
     showgrid="false"
     inkscape:zoom="7.375"
     inkscape:cx="-6.5084738"
     inkscape:cy="8"
     inkscape:window-x="0"
     inkscape:window-y="0"
     inkscape:window-maximized="1"
     inkscape:current-layer="svg6"
     inkscape:document-rotation="0" />
  <defs
     id="defs3051">
    <style
       type="text/css"
       id="current-color-scheme">
      .ColorScheme-Text {
        color:#f2f2f2;
      }
      </style>
  </defs>
  <path
     id="path12"
     style="color:#f2f2f2;fill:#4285f4;fill-opacity:1;stroke:none;stroke-width:1.76383"
     d="m 2.777344,1.9999999 c -0.430889,0 -0.777344,0.446 -0.777344,1 V 6.9218749 9 29.078125 C 2,29.589525 2.319054,30 2.716797,30 H 29.283203 C 29.680946,30 30,29.589526 30,29.078125 V 6.9218749 C 30,6.410475 29.680946,6 29.283203,6 H 16.556641 C 15.670184,6.034 15.240573,5.735672 14.849609,5.2636719 L 13,2.8437499 c -0.261411,-0.4404 -0.457783,-0.84375 -0.888672,-0.84375 z m 8.130859,9.2480471 c 0.367069,-0.330166 0.961055,-0.330166 1.324219,0 l 3.763672,3.384765 3.763672,-3.384765 c 0.367064,-0.330166 0.961061,-0.330166 1.324218,0 l 0.890625,0.789062 c 0.183538,0.165087 0.275391,0.382084 0.275391,0.597657 0,0.215573 -0.09185,0.430424 -0.275391,0.59375 l -5.310547,4.777343 c -0.367066,0.333674 -0.961047,0.333881 -1.328124,0.0039 L 10.025391,13.232422 C 9.841856,13.06734 9.75,12.850338 9.75,12.634766 c 0,-0.215572 0.09186,-0.430424 0.275391,-0.59375 z m 0.0039,6.740234 c 0.363174,-0.330164 0.957149,-0.330164 1.324219,0 l 3.763672,3.384766 3.767578,-3.380859 c 0.363175,-0.330165 0.957141,-0.330164 1.324219,0 l 0.882812,0.792968 c 0.183538,0.163326 0.275391,0.378178 0.275391,0.59375 0,0.215572 -0.09185,0.432575 -0.275391,0.597656 l -5.310547,4.775391 v 0.002 c -0.367066,0.329984 -0.961047,0.329778 -1.328124,-0.0039 L 10.025385,19.972709 C 9.84185,19.809383 9.749994,19.594533 9.749994,19.378959 c 0,-0.215573 0.09186,-0.43257 0.275391,-0.597656 z" />
</svg>
